svgs/youversion.svg

<svg viewBox="0 0 192 192" xml:space="preserve" style="fill-rule:evenodd;clip-rule:evenodd;stroke-linejoin:round;stroke-miterlimit:2" xmlns="http://www.w3.org/2000/svg"><path d="M1440 142V36c0-6.623-5.38-12-12-12h-120c-6.62 0-12 5.377-12 12v120c0 6.623 5.38 12 12 12h106c14.35 0 26-11.65 26-26Zm-12-5.499a27.272 27.272 0 0 1-15.4 4.742H1308V156h106c7.73 0 14-6.273 14-14v-5.499Zm0-22.663V36h-120v93.243h104.6a15.287 15.287 0 0 0 5.02-.84 15.395 15.395 0 0 0 5.73-3.544 15.524 15.524 0 0 0 3.78-5.904c.37-1.052.62-2.145.76-3.253.07-.586.1-1.175.11-1.765v-.099Zm-66-46.135h-15.4c-3.32 0-6 2.688-6 6 0 3.311 2.68 6 6 6h15.4v33.243c0 3.311 2.69 6 6 6s6-2.689 6-6V79.703h15.4c3.32 0 6-2.689 6-6 0-3.312-2.68-6-6-6H1374V52.297c0-3.311-2.69-6-6-6s-6 2.689-6 6v15.406Z" style="fill-rule:evenodd;clip-rule:evenodd;stroke-linejoin:round;stroke-miterlimit:2" transform="translate(-1272)"/></svg>

<?xml version="1.0" encoding="UTF-8" standalone="no"?>
<svg
   width="100%"
   height="100%"
   viewBox="0 0 192 192"
   version="1.1"
   xml:space="preserve"
   style="fill-rule:evenodd;clip-rule:evenodd;stroke-linejoin:round;stroke-miterlimit:2;"
   id="svg10"
   sodipodi:docname="youversion.svg"
   inkscape:version="1.2.1 (9c6d41e410, 2022-07-14)"
   xmlns:inkscape="http://www.inkscape.org/namespaces/inkscape"
   xmlns:sodipodi="http://sodipodi.sourceforge.net/DTD/sodipodi-0.dtd"
   xmlns="http://www.w3.org/2000/svg"
   xmlns:svg="http://www.w3.org/2000/svg"><defs
   id="defs14" /><sodipodi:namedview
   id="namedview12"
   pagecolor="#ffffff"
   bordercolor="#000000"
   borderopacity="0.25"
   inkscape:showpageshadow="2"
   inkscape:pageopacity="0.0"
   inkscape:pagecheckerboard="0"
   inkscape:deskcolor="#d1d1d1"
   showgrid="false"
   inkscape:zoom="5.3489583"
   inkscape:cx="96.186952"
   inkscape:cy="95.906524"
   inkscape:window-width="2552"
   inkscape:window-height="1303"
   inkscape:window-x="4"
   inkscape:window-y="36"
   inkscape:window-maximized="0"
   inkscape:current-layer="svg10" />
    <path
   d="M1440,142L1440,36C1440,29.377 1434.62,24 1428,24L1308,24C1301.38,24 1296,29.377 1296,36L1296,156C1296,162.623 1301.38,168 1308,168C1308,168 1414,168 1414,168C1428.35,168 1440,156.35 1440,142ZM1428,136.501C1423.61,139.493 1418.3,141.243 1412.6,141.243L1308,141.243L1308,156L1414,156C1421.73,156 1428,149.727 1428,142L1428,136.501ZM1428,113.838L1428,36L1308,36L1308,129.243L1412.6,129.243C1413.18,129.241 1413.78,129.21 1414.36,129.143C1415.47,129.016 1416.57,128.767 1417.62,128.403C1419.77,127.662 1421.73,126.442 1423.35,124.859C1425.04,123.211 1426.34,121.18 1427.13,118.955C1427.5,117.903 1427.75,116.81 1427.89,115.702C1427.96,115.116 1427.99,114.527 1428,113.937L1428,113.838ZM1362,67.703L1346.6,67.703C1343.28,67.703 1340.6,70.391 1340.6,73.703C1340.6,77.014 1343.28,79.703 1346.6,79.703L1362,79.703L1362,112.946C1362,116.257 1364.69,118.946 1368,118.946C1371.31,118.946 1374,116.257 1374,112.946L1374,79.703L1389.4,79.703C1392.72,79.703 1395.4,77.014 1395.4,73.703C1395.4,70.391 1392.72,67.703 1389.4,67.703L1374,67.703L1374,52.297C1374,48.986 1371.31,46.297 1368,46.297C1364.69,46.297 1362,48.986 1362,52.297L1362,67.703Z"
   id="path4"
   style="fill-rule:evenodd;clip-rule:evenodd;stroke-linejoin:round;stroke-miterlimit:2"
   transform="translate(-1272)"
   inkscape:label="youversion_form" />
</svg>
